!!!OTL: Am Brunnen
!!!ARE: Europa, Mitteleuropa, Deutschland
!!!SCT: A0063
!!!YEM: Copyright 1995, estate of Helmut Schaffrath.
**kern
*ICvox
*Ivox
*M4/2
*k[f#]
*G:
{2g
2g
2g
=1
2dd
2dd
2cc
2cc
=2
1dd
2r}
{2dd
=3
2g
2a
2b-
2cc
=4
1a
1a
=5
2r}
{2g
2g
2g
=6
2dd
2dd
2cc
2cc
=7
1dd
2r}
{2dd
=8
2g
2a
2b-
2cc
=9
1a
1a
=10
2r}
{2a
2fn
2g
=11
2a
2b-
2cc
2a
=12
2g}
{2g
2a
2a
=13
2fn
2fn
1g
=14
1d
2r}
{2d
=15
2fn
2g
2a
2b-
=16
2cc
2a
2g}
{2g
=17
2b-
2cc
2dd
2cc
=18
1a
2cc
2b-
=19
1g
2b-
2a
=20
1f#
1g
=21
2r}
==
!!!AGN: Romanze, Ballade, Lied
!! Melodie bei J. Ott 1534 No.59.
!!!ONB: ESAC (Essen Associative Code) Database: ALTDEU
!!!AMT: simple quadruple
!!!AIN: vox
!!!EED: Helmut Schaffrath
!!!EEV: 1.0
*-
